assets/images/tilda.svg

<svg width="77" height="30" viewBox="0 0 77 30" fill="none" xmlns="http://www.w3.org/2000/svg">
<path d="M38.0928 22C38.0928 22 38.0928 18.3525 38.0928 11.0576C38.0928 11.0576 37.2695 11.0576 35.623 11.0576C35.623 11.0576 35.623 10.2725 35.623 8.70215C35.623 8.70215 38.0898 8.70215 43.0234 8.70215C43.0234 8.70215 43.0234 9.4873 43.0234 11.0576C43.0234 11.0576 42.2002 11.0576 40.5537 11.0576C40.5537 11.0576 40.5537 14.7051 40.5537 22C40.5537 22 39.7334 22 38.0928 22ZM44.1221 22C44.1221 22 44.1221 18.6748 44.1221 12.0244C44.1221 12.0244 44.9189 12.0244 46.5127 12.0244C46.5127 12.0244 46.5127 15.3496 46.5127 22C46.5127 22 45.7158 22 44.1221 22ZM44.1221 10.9521C44.1221 10.9521 44.1221 10.2021 44.1221 8.70215C44.1221 8.70215 44.9189 8.70215 46.5127 8.70215C46.5127 8.70215 46.5127 9.45215 46.5127 10.9521C46.5127 10.9521 45.7158 10.9521 44.1221 10.9521ZM48.4639 22C48.4639 22 48.4639 17.5674 48.4639 8.70215C48.4639 8.70215 49.2607 8.70215 50.8545 8.70215C50.8545 8.70215 50.8545 13.1348 50.8545 22C50.8545 22 50.0576 22 48.4639 22ZM62.8252 8.70215C62.8252 8.70215 62.8252 13.1348 62.8252 22C62.8252 22 62.0928 22 60.6279 22C60.6279 22 60.6279 21.5693 60.6279 20.708C60.1416 21.2471 59.6406 21.6367 59.125 21.877C58.6094 22.1172 58.0146 22.2373 57.3408 22.2373C56.4092 22.2373 55.5596 22.0088 54.792 21.5518C54.0303 21.0947 53.4297 20.4648 52.9902 19.6621C52.5508 18.8594 52.3311 17.9717 52.3311 16.999C52.3311 16.0205 52.5508 15.1211 52.9902 14.3008C53.4355 13.4805 54.0391 12.8359 54.8008 12.3672C55.5684 11.8984 56.4092 11.6641 57.3232 11.6641C57.9502 11.6641 58.5361 11.7754 59.0811 11.998C59.6318 12.2207 60.083 12.5254 60.4346 12.9121V8.70215H62.8252ZM57.6221 13.8613C56.8135 13.8613 56.1309 14.1543 55.5742 14.7402C55.0234 15.3262 54.748 16.0527 54.748 16.9199C54.748 17.793 55.0352 18.5312 55.6094 19.1348C56.1895 19.7383 56.8926 20.04 57.7188 20.04C58.5273 20.04 59.21 19.7441 59.7666 19.1523C60.3291 18.5605 60.6104 17.8369 60.6104 16.9814C60.6104 16.0791 60.3291 15.335 59.7666 14.749C59.2041 14.1572 58.4893 13.8613 57.6221 13.8613ZM74.8311 12.0244C74.8311 12.0244 74.8311 15.3496 74.8311 22C74.8311 22 74.1016 22 72.6426 22C72.6426 22 72.6426 21.5693 72.6426 20.708C72.1621 21.2529 71.6641 21.6455 71.1484 21.8857C70.6387 22.1201 70.0322 22.2373 69.3291 22.2373C68.3682 22.2373 67.5039 22.0176 66.7363 21.5781C65.9746 21.1328 65.377 20.5146 64.9434 19.7236C64.5156 18.9326 64.3018 18.042 64.3018 17.0518C64.3018 16.0498 64.5186 15.1504 64.9521 14.3535C65.3857 13.5508 65.9893 12.9238 66.7627 12.4727C67.5361 12.0215 68.4092 11.7959 69.3818 11.7959C70.1025 11.7959 70.7236 11.9219 71.2451 12.1738C71.7666 12.4199 72.2324 12.8154 72.6426 13.3604V12.0244H74.8311ZM69.5928 13.9932C68.7607 13.9932 68.0723 14.2861 67.5273 14.8721C66.9883 15.458 66.7188 16.2021 66.7188 17.1045C66.7188 17.9775 66.9912 18.6865 67.5361 19.2314C68.0869 19.7705 68.7988 20.04 69.6719 20.04C70.5391 20.04 71.2363 19.7646 71.7637 19.2139C72.2969 18.6631 72.5635 17.9424 72.5635 17.0518C72.5635 16.1494 72.2852 15.4141 71.7285 14.8457C71.1777 14.2773 70.4658 13.9932 69.5928 13.9932Z" fill="#111111"/>
<g clip-path="url(#clip0_2811_88)">
<path d="M16.23 13.31V23.71H14.29V12.58L16.23 13.31Z" fill="black"/>
<path d="M8.47998 12.34C8.47998 9.67998 9.92998 8.22998 11.63 8.22998C13.33 8.22998 13.57 8.46998 15.5 9.43998C17.43 10.41 17.92 10.65 18.89 10.65C19.86 10.65 20.34 9.91998 20.34 8.46998H22.03C22.27 11.37 20.58 12.58 18.88 12.58C17.18 12.58 16.7 12.34 15.01 11.37C13.32 10.4 12.83 10.16 11.86 10.16C10.89 10.16 10.41 10.89 10.17 12.58L8.47998 12.34Z" fill="black"/>
<path d="M15.5 30C7.23 30 0.5 23.27 0.5 15C0.5 6.73 7.23 0 15.5 0C23.77 0 30.5 6.73 30.5 15C30.5 23.27 23.77 30 15.5 30ZM15.5 0.97C7.76 0.97 1.47 7.26 1.47 15C1.47 22.74 7.76 29.03 15.5 29.03C23.24 29.03 29.53 22.74 29.53 15C29.53 7.26 23.24 0.97 15.5 0.97Z" fill="black"/>
</g>
<defs>
<clipPath id="clip0_2811_88">
<rect width="30" height="30" fill="white" transform="translate(0.5)"/>
</clipPath>
</defs>
</svg>

<svg width="77" height="30" fill="none" xmlns="http://www.w3.org/2000/svg"><path d="M38.093 22V11.058h-2.47V8.702h7.4v2.356h-2.47V22h-2.46Zm6.03 0v-9.976h2.39V22h-2.39Zm0-11.048v-2.25h2.39v2.25h-2.39ZM48.462 22V8.702h2.392V22h-2.391ZM62.826 8.702V22h-2.197v-1.292c-.486.54-.987.929-1.503 1.169-.516.24-1.11.36-1.784.36a4.889 4.889 0 0 1-2.549-.685 4.906 4.906 0 0 1-1.802-1.89c-.44-.803-.659-1.69-.659-2.663 0-.979.22-1.878.66-2.698a5.05 5.05 0 0 1 1.81-1.934 4.748 4.748 0 0 1 2.522-.703c.627 0 1.213.111 1.758.334.55.223 1.002.527 1.354.914v-4.21h2.39Zm-5.203 5.16c-.809 0-1.491.292-2.048.878-.55.586-.826 1.313-.826 2.18 0 .873.287 1.611.861 2.215.58.603 1.284.905 2.11.905.808 0 1.491-.296 2.048-.888.562-.591.843-1.315.843-2.17 0-.903-.28-1.647-.843-2.233-.563-.592-1.278-.888-2.145-.888Zm17.21-1.838V22h-2.19v-1.292c-.48.545-.978.938-1.494 1.178-.51.234-1.116.351-1.819.351-.96 0-1.825-.22-2.593-.659a4.747 4.747 0 0 1-1.793-1.854c-.427-.791-.641-1.682-.641-2.672 0-1.002.217-1.902.65-2.698a4.74 4.74 0 0 1 1.81-1.881c.774-.452 1.647-.677 2.62-.677.72 0 1.342.126 1.863.378.522.246.987.641 1.398 1.186v-1.336h2.188Zm-5.24 1.97c-.831 0-1.52.292-2.065.878-.539.586-.808 1.33-.808 2.233 0 .872.272 1.581.817 2.126.55.54 1.263.809 2.136.809.867 0 1.564-.275 2.092-.826.533-.55.8-1.272.8-2.162 0-.903-.279-1.638-.835-2.206-.551-.569-1.263-.853-2.136-.853Z" fill="#111"/><g clip-path="url(#a)" fill="#000"><path d="M16.23 13.31v10.4h-1.94V12.58l1.94.73Z"/><path d="M8.48 12.34c0-2.66 1.45-4.11 3.15-4.11s1.94.24 3.87 1.21c1.93.97 2.42 1.21 3.39 1.21.97 0 1.45-.73 1.45-2.18h1.69c.24 2.9-1.45 4.11-3.15 4.11s-2.18-.24-3.87-1.21-2.18-1.21-3.15-1.21c-.97 0-1.45.73-1.69 2.42l-1.69-.24Z"/><path d="M15.5 30c-8.27 0-15-6.73-15-15s6.73-15 15-15 15 6.73 15 15-6.73 15-15 15Zm0-29.03C7.76.97 1.47 7.26 1.47 15c0 7.74 6.29 14.03 14.03 14.03 7.74 0 14.03-6.29 14.03-14.03C29.53 7.26 23.24.97 15.5.97Z"/></g><defs><clipPath id="a"><path fill="#fff" transform="translate(.5)" d="M0 0h30v30H0z"/></clipPath></defs></svg>
